X: 15694
T: Golden Eagle, The
R: hornpipe
M: 4/4
K: Gmajor
|:(3cBA|GBDG BDGB|dGBd gbag|fed^c =cDBA|GBAG (3FED (3cBA|
GBDG BdGB|dGBd gbag|fed^c =cDBA|GBAF G2:|
|:(3bbb|bB^df bagf|e^def gfg^g|aA^ce agfe|ed (3cde d2 ab|
c'afd ^cdef|gfga bgag|fed^c =cDBA|GBAF G2:|

